src/assets/image/sharelink.svg

<svg width="24" height="24" viewBox="0 0 24 24" fill="none" xmlns="http://www.w3.org/2000/svg">
<path d="M19.9204 7.53521C19.8408 7.12212 19.7001 6.7183 19.5 6.33648C19.3002 5.95514 19.039 5.5977 18.7206 5.27935C18.2968 4.85503 17.8017 4.53325 17.2749 4.31937C16.4843 4.00002 15.624 3.91996 14.7978 4.08012C14.3847 4.16021 13.9804 4.29887 13.5991 4.49956C13.2187 4.70025 12.8603 4.9605 12.542 5.27935L10.4717 7.34968C10.0537 7.76669 10.0537 8.44491 10.4717 8.86191C10.8896 9.27892 11.5664 9.27892 11.9839 8.86191L14.0542 6.79061C14.2739 6.57186 14.5234 6.41024 14.7915 6.30086C15.1929 6.13826 15.6362 6.09676 16.0586 6.1788C16.2695 6.21983 16.4751 6.29111 16.6689 6.39267C16.8623 6.49424 17.0439 6.62608 17.209 6.79061C17.4287 7.0118 17.5898 7.26084 17.6992 7.5284C17.8618 7.92978 17.9033 8.37363 17.8212 8.79551C17.7802 9.00695 17.7089 9.21251 17.6079 9.40539C17.5053 9.59973 17.374 9.78136 17.209 9.94643L15.1387 12.0163C14.7212 12.4337 14.7212 13.1115 15.1387 13.5285C15.5561 13.9455 16.2329 13.9455 16.6504 13.5285L18.7207 11.4577C19.1455 11.0338 19.4668 10.5387 19.6801 10.0119C20.0005 9.22129 20.0801 8.36091 19.9204 7.53521Z" fill="#21262D"/>
<path d="M12.0169 15.1383L9.94607 17.2091C9.72585 17.4284 9.47635 17.59 9.20876 17.6989C8.80738 17.862 8.36354 17.9035 7.94167 17.822C7.73023 17.7805 7.52517 17.7087 7.33133 17.6076C7.13795 17.5056 6.95633 17.3732 6.7913 17.2092C6.57158 16.9885 6.40996 16.7395 6.30105 16.4714C6.13846 16.0705 6.09696 15.6267 6.17849 15.2038C6.21952 14.9928 6.29127 14.7873 6.39236 14.5939C6.49489 14.4005 6.62624 14.2189 6.7913 14.0534L8.8621 11.983C9.2791 11.566 9.2791 10.8888 8.8621 10.4718C8.44414 10.0543 7.76739 10.0543 7.34989 10.4718L5.27958 12.5416C4.85477 12.9664 4.53349 13.4606 4.31962 13.9884C3.99981 14.778 3.92021 15.6398 4.07987 16.464C4.15946 16.8771 4.29959 17.2814 4.50027 17.6628C4.70046 18.0441 4.96121 18.4025 5.27958 18.7204C5.7044 19.1447 6.19852 19.467 6.72539 19.6794C7.51542 20.0002 8.37676 20.0798 9.20195 19.9201C9.61551 19.84 10.0193 19.6999 10.4002 19.4997C10.7815 19.3 11.1399 19.0388 11.4583 18.7204L13.5286 16.6496C13.9456 16.2326 13.9456 15.5553 13.5286 15.1383C13.1106 14.7208 12.4338 14.7208 12.0169 15.1383Z" fill="#21262D"/>
<path d="M14.7009 9.29893C14.2839 8.88192 13.6067 8.88192 13.1892 9.29893L9.2981 13.1896C8.8811 13.6071 8.8811 14.2839 9.2981 14.7008C9.71607 15.1188 10.3933 15.1188 10.8103 14.7008L14.7009 10.8102C15.1189 10.3927 15.1189 9.7164 14.7009 9.29893Z" fill="#21262D"/>
</svg>

<svg width="24" height="24" fill="none" xmlns="http://www.w3.org/2000/svg"><path d="M19.92 7.535a4.359 4.359 0 0 0-2.645-3.216 4.385 4.385 0 0 0-3.676.18c-.38.201-.739.462-1.057.78l-2.07 2.07a1.069 1.069 0 1 0 1.512 1.513l2.07-2.071c.22-.22.47-.38.737-.49a2.246 2.246 0 0 1 1.878.092 2.235 2.235 0 0 1 .939 3.012 2.24 2.24 0 0 1-.399.541l-2.07 2.07a1.07 1.07 0 0 0 1.511 1.512l2.07-2.07c.425-.424.747-.92.96-1.446.32-.79.4-1.651.24-2.477zM12.017 15.138l-2.07 2.071a2.232 2.232 0 1 1-3.156-3.156l2.071-2.07a1.07 1.07 0 0 0-1.512-1.511l-2.07 2.07a4.361 4.361 0 0 0-1.2 3.922 4.335 4.335 0 0 0 1.2 2.256 4.375 4.375 0 0 0 6.179 0l2.07-2.07a1.07 1.07 0 0 0-1.512-1.512z" fill="#21262D"/><path d="M14.7 9.299a1.07 1.07 0 0 0-1.51 0l-3.892 3.89a1.07 1.07 0 0 0 1.512 1.512l3.89-3.89a1.067 1.067 0 0 0 0-1.512z" fill="#21262D"/></svg>
